icons/hourglass-24.svg

<svg xmlns="http://www.w3.org/2000/svg" width="24" height="24" viewBox="0 0 24 24"><path d="M4.75 2h14.5a.75.75 0 010 1.5h-.75v2.982a4.75 4.75 0 01-2.215 4.017l-2.044 1.29a.25.25 0 000 .422l2.044 1.29a4.75 4.75 0 012.215 4.017V20.5h.75a.75.75 0 010 1.5H4.75a.75.75 0 010-1.5h.75v-2.982a4.75 4.75 0 012.215-4.017l2.044-1.29a.25.25 0 000-.422l-2.044-1.29A4.75 4.75 0 015.5 6.482V3.5h-.75a.75.75 0 010-1.5zM17 3.5H7v2.982A3.25 3.25 0 008.516 9.23l2.044 1.29a1.75 1.75 0 010 2.96l-2.044 1.29A3.25 3.25 0 007 17.518V20.5h10v-2.982a3.25 3.25 0 00-1.516-2.748l-2.044-1.29a1.75 1.75 0 010-2.96l2.044-1.29A3.25 3.25 0 0017 6.482z"/></svg>

<svg xmlns="http://www.w3.org/2000/svg" width="24" height="24" viewBox="0 0 24 24">
  <defs/>
  <path d="M4.75,2 L19.25,2 C19.664,2 20,2.336 20,2.75 C20,3.164 19.664,3.5 19.25,3.5 L18.5,3.5 L18.5,6.482 C18.5,8.112 17.664,9.629 16.285,10.499 L14.241,11.789 C14.169,11.835 14.125,11.914 14.125,12 C14.125,12.086 14.169,12.165 14.241,12.211 L16.285,13.501 C17.664,14.371 18.5,15.888 18.5,17.518 L18.5,20.5 L19.25,20.5 C19.664,20.5 20,20.836 20,21.25 C20,21.664 19.664,22 19.25,22 L4.75,22 C4.336,22 4,21.664 4,21.25 C4,20.836 4.336,20.5 4.75,20.5 L5.5,20.5 L5.5,17.518 C5.5,15.888 6.336,14.371 7.715,13.501 L9.759,12.211 C9.831,12.165 9.875,12.086 9.875,12 C9.875,11.914 9.831,11.835 9.759,11.789 L7.715,10.499 C6.336,9.629 5.5,8.112 5.5,6.482 L5.5,3.5 L4.75,3.5 C4.336,3.5 4,3.164 4,2.75 C4,2.336 4.336,2 4.75,2 Z M17,3.5 L7,3.5 L7,6.482 C7,7.597 7.573,8.635 8.516,9.23 L10.56,10.52 C11.068,10.841 11.376,11.399 11.376,12 C11.376,12.601 11.068,13.159 10.56,13.48 L8.516,14.77 C7.573,15.365 7,16.403 7,17.518 L7,20.5 L17,20.5 L17,17.518 C17,16.403 16.427,15.365 15.484,14.77 L13.44,13.48 C12.932,13.159 12.624,12.601 12.624,12 C12.624,11.399 12.932,10.841 13.44,10.52 L15.484,9.23 C16.427,8.635 17,7.597 17,6.482 Z"/>
</svg>
